assets/images/logo-invision.svg/logo-invision.svg

<?xml version="1.0" encoding="UTF-8" standalone="no"?>
<svg width="46px" height="46px" viewBox="0 0 46 46" version="1.1" xmlns="http://www.w3.org/2000/svg" xmlns:xlink="http://www.w3.org/1999/xlink">
    <!-- Generator: Sketch 46.2 (44496) - http://www.bohemiancoding.com/sketch -->
    <title>invision</title>
    <desc>Created with Sketch.</desc>
    <defs></defs>
    <g id="Page-1" stroke="none" stroke-width="1" fill="none" fill-rule="evenodd">
        <g id="Desktop-Copy-8" transform="translate(-881.000000, -3378.000000)" fill-rule="nonzero">
            <g id="invision" transform="translate(881.000000, 3378.000000)">
                <path d="M41.8299922,0 L4.17000781,0 C1.86695313,0 0,1.86695313 0,4.17000781 L0,41.8299922 C0,44.1330469 1.86695313,46 4.17000781,46 L41.8299922,46 C44.1330469,46 46,44.1330469 46,41.8299922 L46,4.17000781 C46,1.86695313 44.1330469,0 41.8299922,0" id="Shape" fill="#DC395F"></path>
                <path d="M15.3731641,14.4729297 C16.9023047,14.4729297 18.1832969,13.2744141 18.1832969,11.7035859 C18.1832969,10.1338359 16.9023047,8.9355 15.3731641,8.9355 C13.8440234,8.9355 12.5633906,10.1338359 12.5633906,11.7035859 C12.5633906,13.2742344 13.8440234,14.4729297 15.3731641,14.4729297 M9.54661719,29.3007422 C9.38148437,30.0033203 9.29864844,30.7619609 9.29864844,31.3808047 C9.29864844,33.8193438 10.6209687,35.4381484 13.4311016,35.4381484 C15.7616484,35.4381484 17.6510625,34.0541953 19.0114766,31.8194219 L18.1807812,35.1531641 L22.8086328,35.1531641 L25.4536328,24.5445938 C26.1148828,21.858625 27.395875,20.4644297 29.3382969,20.4644297 C30.8672578,20.4644297 31.817625,21.4153359 31.817625,22.9850859 C31.817625,23.439875 31.7762969,23.9352734 31.6109844,24.4727188 L30.2471563,29.3488984 C30.0405156,30.0514766 29.9582188,30.7544141 29.9582188,31.415125 C29.9582188,33.7300391 31.3215078,35.4232344 34.1729688,35.4232344 C36.6111484,35.4232344 38.5532109,33.8536641 39.6277422,30.0929844 L37.8096641,29.391125 C36.9004453,31.9105234 36.1152109,32.3660313 35.4952891,32.3660313 C34.8753672,32.3660313 34.5447422,31.9531094 34.5447422,31.1270859 C34.5447422,30.7551328 34.6277578,30.3423906 34.7513828,29.845375 L36.0740625,25.0947969 C36.4045078,23.9792969 36.5286719,22.9901172 36.5286719,22.0812578 C36.5286719,18.5273984 34.3796094,16.6726641 31.7762969,16.6726641 C29.3382969,16.6726641 26.8586094,18.8718594 25.619125,21.1864141 L26.5279844,17.0320391 L19.4619531,17.0320391 L18.4700781,20.6911953 L21.7761484,20.6911953 L19.7402891,28.8418203 C18.1416094,32.3956797 15.2049766,32.4533594 14.8364375,32.3708828 C14.23125,32.2343203 13.8442031,32.0045 13.8442031,31.2181875 C13.8442031,30.7644766 13.9268594,30.11275 14.1335,29.3269766 L17.2331094,17.0320391 L9.38148437,17.0320391 L8.38960937,20.6911953 L11.6539922,20.6911953 L9.54679688,29.3007422" id="Shape" fill="#FFFFFF"></path>
            </g>
        </g>
    </g>
</svg>

<svg width="46" height="46" viewBox="0 0 46 46" xmlns="http://www.w3.org/2000/svg"><title>invision</title><g fill="none"><path d="M41.83 0H4.17A4.17 4.17 0 0 0 0 4.17v37.66A4.17 4.17 0 0 0 4.17 46h37.66A4.17 4.17 0 0 0 46 41.83V4.17A4.17 4.17 0 0 0 41.83 0" fill="#DC395F"/><path d="M15.373 14.473c1.53 0 2.81-1.199 2.81-2.77 0-1.57-1.28-2.768-2.81-2.768-1.529 0-2.81 1.199-2.81 2.769s1.281 2.769 2.81 2.769M9.547 29.3a9.51 9.51 0 0 0-.248 2.08c0 2.438 1.322 4.057 4.132 4.057 2.33 0 4.22-1.384 5.58-3.619l-.83 3.334h4.628l2.645-10.608c.66-2.686 1.942-4.08 3.884-4.08 1.53 0 2.48.95 2.48 2.52 0 .455-.042.95-.207 1.488l-1.364 4.876a7.33 7.33 0 0 0-.289 2.066c0 2.315 1.364 4.008 4.215 4.008 2.438 0 4.38-1.57 5.455-5.33l-1.818-.702c-.91 2.52-1.695 2.975-2.315 2.975-.62 0-.95-.413-.95-1.239 0-.372.083-.785.206-1.282l1.323-4.75a10.5 10.5 0 0 0 .455-3.014c0-3.554-2.15-5.408-4.753-5.408-2.438 0-4.917 2.199-6.157 4.513l.909-4.154h-7.066l-.992 3.66h3.306l-2.036 8.15c-1.598 3.554-4.535 3.611-4.904 3.529-.605-.137-.992-.367-.992-1.153 0-.454.083-1.105.29-1.891l3.1-12.295H9.38l-.991 3.66h3.264L9.547 29.3" fill="#FFF"/></g></svg>
